X: 1
T: The Silver Vale
R: jig
M: 6/8
L: 1/8
K: Dmaj
|:Bc | dAF AGF | dAF AGF | A,CE GFE | A,CE GFE |
DFA DGB | Adc d2 e | fed cBA | GFE D :||
|:a2 | fdf aba | fdc def | eBB gaf | efd cde |
fef gfg | a^ga ba=g | fed cBA |1 GFE D :|2 GFE D3 ||


Tune 644	Setting 13673

